X:1
T:Em Pfisters Ribel sis (Rugguuseli). E-Dur
T:Naturjodel rund um den Saentis (www.roothuus-gonten.ch)
%%partsbox
%P:
Q:1/4=69
R:Naturjodel (Rugguseli)
M:3/4
L:1/8
K:E %  (%%MIDI gchordo) 
[P:A] E2 FE DC | B,>B,/B,//  GE E2 | F>F/F// AD D2 | E>E GE E2 | 
w: trio jo jo jo jo je be li u-ü-ja jo be li u ü ja tro li u ü ja 
E>E/E// FE DC | B,>B,/B,//  GE E2 | F>F/F// BA B,D | E4 z2 |] 
w: dro be li jo jo jo jo ja be li u ü ja tra be li u du ja di ho 
[P:B] F>F/F// AD D2 | E>E/E// GE E2 | F>F/F// ADD2 | E>E/E// GE E2 | 
w: tro be li u ü ja ja be li u ü a  tra be li u i a dra be li un i a 
E2 FE DC | B,>B,/B,// GE E2 | F>F/F// BA B,D | E4z2 |] 
w:njo jo jo jo jo  ja be li u ü ja  tra be li u du ja di  ho 
W:
%W:Parts: AB
W:
W:Aus dem Tonarchiv von Johann Manser.
W:gesungen von  Sepp Grubenmann, 1961.
W:
W: Notiert unter Nr. 387 in "Heemetklang us Innerrhode", 1979, S. 166 
W: 
W: Traditionelle zweiteilige Form. Im zweiten Teil wird ein Motiv des ersten Teils variiert, 
W: anschliessend der Schluss des ersten Teils erneut angehängt.
W: 
W:https://www.roothuus-gonten.ch/mediendateien/jodel/pdf/Em Pfisters Ribel sis.pdf
W: *AUDIO*:  www.roothuus-gonten.ch/cms/index.php/de/naturjodel-rund-um-den-saentis
% © 2017 ROOTHUUS GONTEN. #168.30 (H608)
% Feb. 9 2019

